X:11
T:Ronde de Land?da
O:North-West Brittany
Z:Dave Holland <dave@biff.org.uk>
M:3/2
L:1/8
Q:c/2=60
K:D
f|fedd d>def f2ef|1fedA d>def f2e:|2fedA d>def f2e2||
f2fe ede>f fefd|1f2fe ede>f fed2:|2f2fe ede>f fe d|]
<end>
<start>
